public/logos/node-mono.svg

<svg width="256" height="256" viewBox="0 0 256 256" fill="none" xmlns="http://www.w3.org/2000/svg">
  <path d="M119.336 23.2831C124.642 20.2458 131.554 20.2321 136.855 23.2831C163.527 38.3542 190.208 53.4017 216.875 68.482C221.891 71.3073 225.246 76.8894 225.195 82.669V173.343C225.232 179.361 221.546 185.077 216.254 187.838C189.67 202.826 163.099 217.833 136.519 232.821C131.103 235.917 124.053 235.679 118.806 232.328C110.836 227.708 102.853 223.111 94.8818 218.495C93.253 217.524 91.417 216.751 90.2669 215.172C91.2836 213.802 93.1014 213.631 94.5785 213.033C97.9053 211.975 100.961 210.277 104.017 208.629C104.79 208.1 105.734 208.303 106.474 208.776C113.29 212.683 120.045 216.705 126.883 220.575C128.342 221.417 129.819 220.299 131.066 219.604C157.153 204.86 183.273 190.171 209.356 175.423C210.322 174.958 210.856 173.932 210.778 172.873C210.796 142.962 210.782 113.045 210.787 83.1339C210.898 81.9327 210.202 80.8283 209.116 80.3367C182.624 65.4173 156.146 50.475 129.658 35.5517C129.199 35.2362 128.655 35.0669 128.099 35.0661C127.542 35.0653 126.998 35.233 126.538 35.5471C100.05 50.475 73.5761 65.431 47.0885 80.3497C46.0062 80.842 45.2799 81.9281 45.4087 83.1339C45.4133 113.045 45.4087 142.962 45.4087 172.878C45.3628 173.394 45.4762 173.912 45.7338 174.363C45.9913 174.813 46.3806 175.173 46.8492 175.395C53.9175 179.403 60.995 183.383 68.068 187.378C72.0526 189.523 76.9449 190.797 81.335 189.154C85.2091 187.764 87.9247 183.811 87.8508 179.698C87.8874 149.961 87.8325 120.219 87.8782 90.4873C87.7814 89.1672 89.0337 88.0765 90.3172 88.2008C93.7134 88.1779 97.1142 88.1551 100.51 88.2099C101.928 88.1779 102.904 89.5994 102.728 90.9293C102.715 120.854 102.765 150.78 102.705 180.705C102.715 188.681 99.438 197.359 92.061 201.261C82.9729 205.969 71.7401 204.97 62.7617 200.456C54.9891 196.577 47.5717 191.998 39.9371 187.842C34.6316 185.096 30.9633 179.358 31.0007 173.343V82.669C30.945 76.7698 34.4335 71.0863 39.6055 68.3021C66.1854 53.3018 92.7607 38.2902 119.336 23.2831Z" fill="currentColor" />
  <path d="M142.524 86.0934C154.117 85.3472 166.527 85.6513 176.959 91.3623C185.036 95.7387 189.513 104.924 189.656 113.897C189.43 115.107 188.165 115.775 187.01 115.691C183.646 115.687 180.282 115.737 176.919 115.669C175.492 115.723 174.663 114.408 174.483 113.147C173.517 108.853 171.176 104.601 167.135 102.53C160.931 99.4245 153.739 99.5807 146.974 99.6455C142.036 99.9077 136.726 100.335 132.543 103.239C129.331 105.439 128.355 109.879 129.502 113.455C130.582 116.023 133.547 116.851 135.972 117.615C149.942 121.269 164.747 120.905 178.45 125.714C184.124 127.674 189.674 131.485 191.616 137.425C194.157 145.387 193.043 154.904 187.379 161.295C182.785 166.555 176.095 169.417 169.422 170.972C160.545 172.952 151.333 173.002 142.318 172.123C133.841 171.157 125.019 168.93 118.475 163.154C112.88 158.295 110.146 150.725 110.418 143.418C110.483 142.184 111.711 141.323 112.893 141.425C116.28 141.397 119.667 141.388 123.055 141.429C124.407 141.332 125.41 142.502 125.48 143.777C126.105 147.867 127.642 152.16 131.209 154.586C138.093 159.027 146.731 158.723 154.613 158.847C161.143 158.557 168.474 158.47 173.803 154.154C176.614 151.692 177.447 147.573 176.688 144.03C175.864 141.038 172.735 139.644 170.048 138.733C156.256 134.37 141.286 135.953 127.628 131.019C122.084 129.06 116.722 125.355 114.591 119.659C111.619 111.596 112.981 101.624 119.239 95.4483C125.341 89.3052 134.149 86.9394 142.524 86.0926V86.0934Z" fill="currentColor" />
</svg>

<svg width="256" height="256" viewBox="0 0 256 256" fill="none" xmlns="http://www.w3.org/2000/svg">
  <path d="M119.336 23.283c5.306-3.037 12.218-3.05 17.519 0 26.672 15.071 53.353 30.119 80.02 45.199 5.016 2.825 8.371 8.407 8.32 14.187v90.674c.037 6.018-3.649 11.734-8.941 14.495-26.584 14.988-53.155 29.995-79.735 44.983-5.416 3.096-12.466 2.858-17.713-.493-7.97-4.62-15.953-9.217-23.924-13.833-1.629-.971-3.465-1.744-4.615-3.323 1.017-1.37 2.834-1.541 4.312-2.139 3.326-1.058 6.382-2.756 9.438-4.404.773-.529 1.717-.326 2.457.147 6.816 3.907 13.571 7.929 20.409 11.799 1.459.842 2.936-.276 4.183-.971 26.087-14.744 52.207-29.433 78.29-44.181.966-.465 1.5-1.491 1.422-2.55.018-29.911.004-59.828.009-89.74.111-1.2-.585-2.305-1.671-2.796-26.492-14.92-52.97-29.862-79.458-44.785a2.76 2.76 0 0 0-3.12-.005C100.05 50.475 73.576 65.431 47.088 80.35c-1.082.492-1.808 1.578-1.68 2.784.005 29.911 0 59.828 0 89.744a2.54 2.54 0 0 0 1.441 2.517c7.069 4.008 14.146 7.988 21.219 11.983 3.985 2.145 8.877 3.419 13.267 1.776 3.874-1.39 6.59-5.343 6.516-9.456.036-29.737-.019-59.479.027-89.21-.097-1.32 1.156-2.412 2.44-2.287 3.395-.023 6.796-.046 10.192.009 1.418-.032 2.394 1.39 2.218 2.72-.013 29.924.037 59.85-.023 89.775.01 7.976-3.267 16.654-10.644 20.556-9.088 4.708-20.32 3.709-29.3-.805-7.772-3.879-15.19-8.458-22.824-12.614-5.305-2.746-8.974-8.484-8.936-14.499V82.669c-.056-5.9 3.433-11.583 8.604-14.367 26.58-15 53.156-30.012 79.731-45.019Z" fill="currentColor"/>
  <path d="M142.524 86.093c11.593-.746 24.003-.442 34.435 5.27 8.077 4.376 12.554 13.561 12.697 22.534-.226 1.21-1.491 1.878-2.646 1.794-3.364-.004-6.728.046-10.091-.022-1.427.054-2.256-1.261-2.436-2.522-.966-4.294-3.307-8.546-7.348-10.617-6.204-3.106-13.396-2.95-20.161-2.885-4.938.263-10.248.69-14.431 3.594-3.212 2.2-4.188 6.64-3.041 10.216 1.08 2.568 4.045 3.396 6.47 4.16 13.97 3.654 28.775 3.29 42.478 8.099 5.674 1.96 11.224 5.771 13.166 11.711 2.541 7.962 1.427 17.479-4.237 23.87-4.594 5.26-11.284 8.122-17.957 9.677-8.877 1.98-18.089 2.03-27.104 1.151-8.477-.966-17.299-3.193-23.843-8.969-5.595-4.859-8.329-12.429-8.057-19.736.065-1.234 1.293-2.095 2.475-1.993 3.387-.028 6.774-.037 10.162.004 1.352-.097 2.355 1.073 2.425 2.348.625 4.09 2.162 8.383 5.729 10.809 6.884 4.441 15.522 4.137 23.404 4.261 6.53-.29 13.861-.377 19.19-4.693 2.811-2.462 3.644-6.581 2.885-10.124-.824-2.992-3.953-4.386-6.64-5.297-13.792-4.363-28.762-2.78-42.42-7.714-5.544-1.959-10.906-5.664-13.037-11.36-2.972-8.063-1.61-18.035 4.648-24.21 6.102-6.144 14.91-8.51 23.285-9.356Z" fill="currentColor"/>
</svg>
